client/src/assets/plus.svg

<?xml version="1.0"?>
<svg xmlns="http://www.w3.org/2000/svg" height="512px" viewBox="0 0 512 512" width="512px"><g><path d="m256 0c-141.164062 0-256 114.835938-256 256s114.835938 256 256 256 256-114.835938 256-256-114.835938-256-256-256zm112 277.332031h-90.667969v90.667969c0 11.777344-9.554687 21.332031-21.332031 21.332031s-21.332031-9.554687-21.332031-21.332031v-90.667969h-90.667969c-11.777344 0-21.332031-9.554687-21.332031-21.332031s9.554687-21.332031 21.332031-21.332031h90.667969v-90.667969c0-11.777344 9.554687-21.332031 21.332031-21.332031s21.332031 9.554687 21.332031 21.332031v90.667969h90.667969c11.777344 0 21.332031 9.554687 21.332031 21.332031s-9.554687 21.332031-21.332031 21.332031zm0 0" data-original="#000000" class="active-path" data-old_color="#000000" fill="#FFFFFF"/></g> </svg>

<svg width="512" height="512" viewBox="0 0 512 512" fill="none" xmlns="http://www.w3.org/2000/svg">
<path d="M256 0C114.836 0 0 114.836 0 256C0 397.164 114.836 512 256 512C397.164 512 512 397.164 512 256C512 114.836 397.164 0 256 0ZM368 277.332H277.332V368C277.332 379.777 267.777 389.332 256 389.332C244.223 389.332 234.668 379.777 234.668 368V277.332H144C132.223 277.332 122.668 267.777 122.668 256C122.668 244.223 132.223 234.668 144 234.668H234.668V144C234.668 132.223 244.223 122.668 256 122.668C267.777 122.668 277.332 132.223 277.332 144V234.668H368C379.777 234.668 389.332 244.223 389.332 256C389.332 267.777 379.777 277.332 368 277.332V277.332Z" fill="#232946"/>
</svg>
